icons/Creditcards.svg

<svg width="24" height="24" viewBox="0 0 24 24" fill="none" xmlns="http://www.w3.org/2000/svg">
<path fill-rule="evenodd" clip-rule="evenodd" d="M5.25,5.5c0,-1.24264 1.00736,-2.25 2.25,-2.25h13c1.2426,0 2.25,1.00736 2.25,2.25v8.5c0,1.2426 -1.0074,2.25 -2.25,2.25h-1.75v2c0,1.2426 -1.0074,2.25 -2.25,2.25h-13c-1.24264,0 -2.25,-1.0074 -2.25,-2.25v-5.75v-2.75c0,-1.24264 1.00736,-2.25 2.25,-2.25h1.75zM2.75,13.25v5c0,0.4142 0.33579,0.75 0.75,0.75h13c0.4142,0 0.75,-0.3358 0.75,-0.75v-5.0427c-0.0782,0.0277 -0.1623,0.0427 -0.25,0.0427zM17.25,9.75c0,-0.41421 -0.3358,-0.75 -0.75,-0.75h-13c-0.41421,0 -0.75,0.33579 -0.75,0.75v2h14.25c0.0877,0 0.1718,0.015 0.25,0.0427zM21.25,14v-8.5c0,-0.41421 -0.3358,-0.75 -0.75,-0.75h-13c-0.41421,0 -0.75,0.33579 -0.75,0.75v2h9.75c1.2426,0 2.25,1.00736 2.25,2.25v5h1.75c0.4142,0 0.75,-0.3358 0.75,-0.75zM7.25,16.25c0,-0.4142 0.33579,-0.75 0.75,-0.75h2.5c0.4142,0 0.75,0.3358 0.75,0.75c0,0.4142 -0.3358,0.75 -0.75,0.75h-2.5c-0.41421,0 -0.75,-0.3358 -0.75,-0.75zM4.125,16.25c0,-0.4832 0.39175,-0.875 0.875,-0.875c0.48325,0 0.875,0.3918 0.875,0.875c0,0.4832 -0.39175,0.875 -0.875,0.875c-0.48325,0 -0.875,-0.3918 -0.875,-0.875z" fill="#002B51"/>
</svg>

<svg width="24" height="24" viewBox="0 0 24 24" fill="none" xmlns="http://www.w3.org/2000/svg">
<path fill-rule="evenodd" clip-rule="evenodd" d="M5.25 5.5C5.25 4.25736 6.25736 3.25 7.5 3.25H20.5C21.7426 3.25 22.75 4.25736 22.75 5.5V14C22.75 15.2426 21.7426 16.25 20.5 16.25H18.75V18.25C18.75 19.4926 17.7426 20.5 16.5 20.5H3.5C2.25736 20.5 1.25 19.4926 1.25 18.25V12.5V9.75C1.25 8.50736 2.25736 7.5 3.5 7.5H5.25V5.5ZM2.75 13.25V18.25C2.75 18.6642 3.08579 19 3.5 19H16.5C16.9142 19 17.25 18.6642 17.25 18.25V13.2073C17.1718 13.235 17.0877 13.25 17 13.25H2.75ZM17.25 11.7927C17.1718 11.765 17.0877 11.75 17 11.75H2.75V9.75C2.75 9.33579 3.08579 9 3.5 9H16.5C16.9142 9 17.25 9.33579 17.25 9.75V11.7927ZM20.5 14.75H18.75V9.75C18.75 8.50736 17.7426 7.5 16.5 7.5H6.75V5.5C6.75 5.08579 7.08579 4.75 7.5 4.75H20.5C20.9142 4.75 21.25 5.08579 21.25 5.5V14C21.25 14.4142 20.9142 14.75 20.5 14.75ZM7.25 16.25C7.25 15.8358 7.58579 15.5 8 15.5H10.5C10.9142 15.5 11.25 15.8358 11.25 16.25C11.25 16.6642 10.9142 17 10.5 17H8C7.58579 17 7.25 16.6642 7.25 16.25ZM5 17.125C5.48325 17.125 5.875 16.7332 5.875 16.25C5.875 15.7668 5.48325 15.375 5 15.375C4.51675 15.375 4.125 15.7668 4.125 16.25C4.125 16.7332 4.51675 17.125 5 17.125Z" fill="#002B51"/>
</svg>
